X: 30
T:Mixed Branle of War
M:C|
L:1/4
N:Barring editorial
B:Thoinot Arbeau : Orchesographie, 1589
Z:Steve Mansfield March 2001
K:DDor
c/B/c/d/ cc | A2 Fc | BA GF | E2 C2 |
G2 AB | c2 cc | dc cB | c2 c2 ::
cc cA | cc cA | B/G/A B/G/A | GF AG |
A/F/G A/F/G | FF ED | A/F/G FFE | F2 F2 ||
<end>
<start>
